dist/icons/socials/youtube.svg

<svg width="30" height="30" viewBox="0 0 30 30" fill="none" xmlns="http://www.w3.org/2000/svg">
<path d="M17.3588 22.0505V19.3423C17.3588 18.7673 17.192 18.4798 16.8585 18.4798C16.663 18.4798 16.4733 18.5718 16.2893 18.7558V22.6198C16.4733 22.8038 16.663 22.8958 16.8585 22.8958C17.192 22.8958 17.3588 22.614 17.3588 22.0505ZM20.5327 19.946H21.6712V19.3595C21.6712 18.773 21.4815 18.4798 21.102 18.4798C20.7225 18.4798 20.5327 18.773 20.5327 19.3595V19.946ZM10.6831 15.3576V16.565H9.30308V23.8617H8.02659V16.565H6.68111V15.3576H10.6831ZM14.1503 17.531V23.8617H12.9946V23.1717C12.5461 23.6892 12.1091 23.948 11.6836 23.948C11.3041 23.948 11.0626 23.787 10.9591 23.465C10.8901 23.2695 10.8556 22.959 10.8556 22.5335V17.531H11.9941V22.1885C11.9941 22.4645 11.9998 22.614 12.0113 22.637C12.0228 22.8095 12.1091 22.8958 12.2701 22.8958C12.5001 22.8958 12.7416 22.7175 12.9946 22.361V17.531H14.1503ZM18.4973 19.4458V21.9643C18.4973 22.5623 18.457 22.982 18.3765 23.2235C18.2385 23.7065 17.9338 23.948 17.4623 23.948C17.0598 23.948 16.6688 23.7122 16.2893 23.2407V23.8617H15.1335V15.3576H16.2893V18.1348C16.6573 17.6748 17.0483 17.4448 17.4623 17.4448C17.9338 17.4448 18.2385 17.6863 18.3765 18.1693C18.457 18.4108 18.4973 18.8363 18.4973 19.4458ZM22.827 21.671V21.8263C22.827 22.1598 22.8155 22.407 22.7925 22.568C22.758 22.821 22.6717 23.051 22.5337 23.258C22.2232 23.718 21.7632 23.948 21.1537 23.948C20.5557 23.948 20.09 23.7295 19.7565 23.2925C19.515 22.982 19.3943 22.4875 19.3943 21.809V19.5838C19.3943 18.9053 19.5093 18.4108 19.7393 18.1003C20.0728 17.6633 20.5327 17.4448 21.1192 17.4448C21.7057 17.4448 22.1542 17.6633 22.4647 18.1003C22.7062 18.4338 22.827 18.9283 22.827 19.5838V20.8948H20.5327V22.016C20.5327 22.6025 20.7282 22.8958 21.1192 22.8958C21.3952 22.8958 21.5677 22.7463 21.6367 22.4473C21.6367 22.4358 21.6396 22.3955 21.6454 22.3265C21.6511 22.2575 21.654 22.1626 21.654 22.0419V21.671H22.827ZM15.0473 7.45712V10.1481C15.0473 10.7346 14.8633 11.0278 14.4953 11.0278C14.1273 11.0278 13.9433 10.7346 13.9433 10.1481V7.45712C13.9433 6.85913 14.1273 6.56013 14.4953 6.56013C14.8633 6.56013 15.0473 6.85913 15.0473 7.45712ZM24.2415 19.7563C24.2415 17.7208 24.1322 16.2258 23.9137 15.2713C23.7987 14.7653 23.5515 14.3427 23.172 14.0034C22.7925 13.6642 22.3555 13.4658 21.861 13.4083C20.297 13.2358 17.928 13.1496 14.754 13.1496C11.5916 13.1496 9.22833 13.2358 7.66435 13.4083C7.15835 13.4658 6.71848 13.6642 6.34473 14.0034C5.97099 14.3427 5.72661 14.7653 5.61161 15.2713C5.38162 16.2718 5.26662 17.7668 5.26662 19.7563C5.26662 21.7803 5.38162 23.2752 5.61161 24.2412C5.72661 24.7357 5.97099 25.1555 6.34473 25.5005C6.71848 25.8455 7.1526 26.0467 7.6471 26.1042C9.22259 26.2767 11.5916 26.363 14.754 26.363C17.9165 26.363 20.2855 26.2767 21.861 26.1042C22.3555 26.0467 22.7896 25.8455 23.1634 25.5005C23.5371 25.1555 23.7815 24.7357 23.8965 24.2412C24.1265 23.2752 24.2415 21.7803 24.2415 19.7563ZM11.2178 8.52661L12.7703 3.42065H11.4766L10.5968 6.78438L9.68258 3.42065H8.33709C8.41759 3.68515 8.54984 4.0819 8.73384 4.61089L9.14784 5.80113C9.55033 6.98563 9.81483 7.89412 9.94133 8.52661V11.9938H11.2178V8.52661ZM16.203 9.92385V7.68137C16.203 7.01438 16.0823 6.51413 15.8408 6.18063C15.5073 5.74363 15.0588 5.52514 14.4953 5.52514C13.9088 5.52514 13.4603 5.74363 13.1498 6.18063C12.9083 6.51413 12.7876 7.01438 12.7876 7.68137V9.92385C12.7876 10.5908 12.9083 11.0911 13.1498 11.4246C13.4603 11.8616 13.9088 12.0801 14.4953 12.0801C15.0588 12.0801 15.5073 11.8616 15.8408 11.4246C16.0823 11.1141 16.203 10.6138 16.203 9.92385ZM19.3253 11.9938H20.481V5.61139H19.3253V10.4931C19.0723 10.8496 18.8308 11.0278 18.6008 11.0278C18.4283 11.0278 18.3363 10.9358 18.3248 10.7518C18.3133 10.7288 18.3075 10.5793 18.3075 10.3033V5.61139H17.1518V10.6656C17.1518 11.0911 17.1863 11.4073 17.2553 11.6143C17.3818 11.9248 17.629 12.0801 17.997 12.0801C18.411 12.0801 18.8538 11.8213 19.3253 11.3038V11.9938ZM28.0019 6.74988V23.3097C28.0019 24.6782 27.9974 26.4224 27.0257 27.3941C26.0539 28.3659 24.4025 28.2777 23.034 28.2777H6.47411C5.10562 28.2777 3.3166 28.3659 2.34486 27.3941C1.37312 26.4224 1.50615 24.6782 1.50615 23.3097V6.74988C1.50615 5.38139 1.37312 3.63645 2.34486 2.6647C3.3166 1.69296 5.10562 1.78192 6.47411 1.78192H23.034C24.4025 1.78192 26.0539 1.69296 27.0257 2.6647C27.9974 3.63645 28.0019 5.38139 28.0019 6.74988Z" fill="black" fill-opacity="0.5"/>
</svg>

<svg width="30" height="30" fill="none" xmlns="http://www.w3.org/2000/svg"><path d="M17.359 22.05v-2.708c0-.575-.167-.862-.5-.862-.196 0-.386.092-.57.276v3.864c.184.184.374.276.57.276.333 0 .5-.282.5-.846zm3.174-2.104h1.138v-.587c0-.586-.19-.88-.569-.88-.38 0-.57.294-.57.88v.587zm-9.85-4.588v1.207h-1.38v7.297H8.027v-7.297H6.68v-1.207h4.002zm3.467 2.173v6.33h-1.155v-.69c-.449.518-.886.777-1.311.777-.38 0-.621-.161-.725-.483-.069-.195-.103-.506-.103-.931V17.53h1.138v4.658c0 .276.006.425.017.448.012.172.098.259.26.259.23 0 .47-.178.724-.535v-4.83h1.155zm4.347 1.915v2.518c0 .598-.04 1.018-.12 1.26-.139.482-.443.724-.915.724-.402 0-.793-.236-1.173-.707v.62h-1.156v-8.503h1.156v2.777c.368-.46.76-.69 1.173-.69.472 0 .776.241.915.724.08.242.12.667.12 1.277zm4.33 2.225v.155c0 .334-.012.581-.035.742-.034.253-.12.483-.258.69-.31.46-.77.69-1.38.69-.598 0-1.064-.218-1.398-.655-.241-.311-.362-.805-.362-1.484v-2.225c0-.679.115-1.173.345-1.484.334-.437.794-.655 1.38-.655.587 0 1.035.218 1.346.655.241.334.362.828.362 1.484v1.31h-2.294v1.122c0 .587.195.88.586.88.276 0 .449-.15.518-.449l.008-.12a3.5 3.5 0 00.009-.285v-.371h1.173zm-7.78-14.214v2.691c0 .587-.184.88-.552.88-.368 0-.552-.293-.552-.88v-2.69c0-.599.184-.898.552-.898.368 0 .552.3.552.897zm9.194 12.3c0-2.036-.109-3.531-.327-4.486a2.36 2.36 0 00-.742-1.268 2.33 2.33 0 00-1.311-.595c-1.564-.172-3.933-.258-7.107-.258-3.162 0-5.526.086-7.09.258a2.303 2.303 0 00-1.32.595 2.39 2.39 0 00-.732 1.268c-.23 1-.345 2.496-.345 4.485 0 2.024.115 3.52.345 4.485.115.495.359.915.733 1.26.373.345.808.546 1.302.603 1.576.173 3.945.259 7.107.259 3.162 0 5.531-.086 7.107-.259a2.263 2.263 0 001.302-.604c.374-.345.619-.764.733-1.259.23-.966.345-2.46.345-4.485zM11.218 8.526L12.77 3.42h-1.293l-.88 3.363-.914-3.363H8.337c.08.264.213.66.397 1.19l.414 1.19c.402 1.185.667 2.093.793 2.726v3.467h1.277V8.527zm4.985 1.397V7.68c0-.667-.12-1.167-.362-1.5-.334-.437-.782-.656-1.346-.656-.586 0-1.035.219-1.345.656-.242.333-.362.833-.362 1.5v2.243c0 .667.12 1.167.362 1.5.31.438.759.656 1.345.656.564 0 1.012-.218 1.346-.655.241-.31.362-.811.362-1.501zm3.122 2.07h1.156V5.61h-1.156v4.882c-.253.357-.494.535-.724.535-.173 0-.265-.092-.276-.276-.012-.023-.017-.173-.017-.449V5.611h-1.156v5.055c0 .425.034.741.103.948.127.31.374.466.742.466.414 0 .857-.259 1.328-.776v.69zm8.677-5.244v16.56c0 1.368-.005 3.112-.976 4.084-.972.972-2.623.884-3.992.884H6.474c-1.368 0-3.157.088-4.13-.884-.97-.972-.838-2.716-.838-4.084V6.75c0-1.369-.133-3.114.839-4.085.972-.972 2.76-.883 4.13-.883h16.559c1.369 0 3.02-.089 3.992.883.971.971.976 2.716.976 4.085z" fill="#000" fill-opacity=".5"/></svg>
